OBS Studio/Fluent Dark Grey/scrollbar/caret_top.svg

<svg width="14" height="16" fill="none" viewBox="0 0 14 16" xmlns="http://www.w3.org/2000/svg"><path d="m3.9922 11c-0.13802 0-0.26693-0.026-0.38672-0.0781-0.11979-0.0547-0.22526-0.1263-0.31641-0.2149-0.08854-0.0911-0.15885-0.1966-0.21094-0.3164-0.05208-0.1224-0.07812-0.2526-0.07812-0.3906 0-0.10938 0.01432-0.20964 0.04297-0.30078 0.03125-0.09115 0.07682-0.18099 0.13672-0.26953l2.6016-3.7852c0.06771-0.09896 0.14714-0.1862 0.23828-0.26172 0.09115-0.07552 0.1888-0.13802 0.29297-0.1875 0.10677-0.05208 0.21875-0.09114 0.33594-0.11719 0.11718-0.02604 0.23437-0.03906 0.35156-0.03906s0.23438 0.01302 0.35156 0.03906c0.11719 0.02605 0.22787 0.06511 0.33203 0.11719 0.10677 0.04948 0.20573 0.11198 0.29688 0.1875 0.09114 0.07552 0.17057 0.16276 0.23828 0.26172l2.6016 3.7852c0.0599 0.08854 0.1042 0.17838 0.1328 0.26953 0.0313 0.09114 0.0469 0.1914 0.0469 0.30078 0 0.138-0.026 0.2682-0.0781 0.3906-0.0521 0.1198-0.1224 0.2253-0.211 0.3164-0.0885 0.0886-0.194 0.1602-0.3164 0.2149-0.1198 0.0521-0.2474 0.0781-0.3828 0.0781h-6.0195z" fill="#fff" fill-opacity=".5442"/></svg>

<svg width="14" height="16" viewBox="0 0 14 16" fill="none" xmlns="http://www.w3.org/2000/svg">
<path d="M3.99219 11C3.85417 11 3.72526 10.974 3.60547 10.9219C3.48568 10.8672 3.38021 10.7956 3.28906 10.707C3.20052 10.6159 3.13021 10.5104 3.07812 10.3906C3.02604 10.2682 3 10.138 3 10C3 9.89062 3.01432 9.79036 3.04297 9.69922C3.07422 9.60807 3.11979 9.51823 3.17969 9.42969L5.78125 5.64453C5.84896 5.54557 5.92839 5.45833 6.01953 5.38281C6.11068 5.30729 6.20833 5.24479 6.3125 5.19531C6.41927 5.14323 6.53125 5.10417 6.64844 5.07812C6.76562 5.05208 6.88281 5.03906 7 5.03906C7.11719 5.03906 7.23438 5.05208 7.35156 5.07812C7.46875 5.10417 7.57943 5.14323 7.68359 5.19531C7.79036 5.24479 7.88932 5.30729 7.98047 5.38281C8.07161 5.45833 8.15104 5.54557 8.21875 5.64453L10.8203 9.42969C10.8802 9.51823 10.9245 9.60807 10.9531 9.69922C10.9844 9.79036 11 9.89062 11 10C11 10.138 10.974 10.2682 10.9219 10.3906C10.8698 10.5104 10.7995 10.6159 10.7109 10.707C10.6224 10.7956 10.5169 10.8672 10.3945 10.9219C10.2747 10.974 10.1471 11 10.0117 11H3.99219Z" fill="white" fill-opacity="0.5442"/>
</svg>
